X: 144118
T: BRISTOL HORNPIPE
R: Hornpipe.
%R: hornpipe
B: James Kerr "Merry Melodies" v.1 p.44 s.1 #18
Z: 2016 John Chambers <jc:trillian.mit.edu>
M: C
L: 1/8
K: A
(3(uefg) |\
a>ec>e A>ce>a | f>dB>G A2(B>c) |\
d>ef>e d>cB>A | G>AF>G E2 (3(efg) |\
a>ec>e A>ce>a | f>dB>G A2 (B>c) |\
d>fe>d c>BA>G | B2A2A2 |]
(e>d) |\
c>eA>e c>eA>e | d>fB>f d>fB>f |\
c>eA>e c>eA>e | G>BE>B G>BE>B |\
c>eA>e c>eA>e | d>fB>f d>fB>f |\
e>ag>f e>dc>B | A2c2A2 H|]

%%sep 1 1 500
%%sep 1 1 500

